images/content/logos/national-theatre.svg

<svg width="161" height="95" xmlns="http://www.w3.org/2000/svg"><title>national-theatre</title><desc>Created with Sketch.</desc><g fill="#fff"><path d="M.31.707h36.407l43.424 65.805v27.537h-17.535l-35.327-53.025c-17.692-27.671-18.931-29.853-26.968-30.878v-9.439h-.001z" id="Shape"/><path d="M70.157.707h21.844v10.518c-9.602 2.535-11.596 10.35-11.596 18.068v7.012h-10.248v-35.598z" id="Shape"/><path d="M10.909 34.417l9.708 14.562v24.271c0 10.14 10.653 13.351 10.653 13.351v7.448h-31.013v-7.313c7.228-1.888 10.652-10.139 10.652-13.483v-38.836z" id="Shape"/><path d="M160.498.707h-21.844v10.652c9.602 2.535 11.591 10.761 11.591 18.475v6.473l10.253-.002v-35.598z" id="Shape"/><path d="M131.104.707v68.801c0 7.551 1.079 14.023 9.979 16.989v7.552h-51.509v-7.82c8.495-2.428 10.518-8.091 10.518-18.069v-67.453h31.012z"/></g></svg>

<?xml version="1.0" encoding="UTF-8"?>
<svg width="161px" height="95px" viewBox="0 0 161 95" version="1.1" xmlns="http://www.w3.org/2000/svg" xmlns:xlink="http://www.w3.org/1999/xlink">
    <!-- Generator: Sketch 45.2 (43514) - http://www.bohemiancoding.com/sketch -->
    <title>national-theatre</title>
    <desc>Created with Sketch.</desc>
    <defs></defs>
    <g id="Page-1" stroke="none" stroke-width="1" fill="none" fill-rule="evenodd">
        <g id="national-theatre" fill-rule="nonzero" fill="#ffffff">
            <path d="M0.31,0.707 L36.717,0.707 L80.141,66.512 L80.141,94.049 L62.606,94.049 L27.279,41.024 C9.587,13.353 8.348,11.171 0.311,10.146 L0.311,0.707 L0.31,0.707 Z" id="Shape"></path>
            <path d="M70.157,0.707 L92.001,0.707 L92.001,11.225 C82.399,13.76 80.405,21.575 80.405,29.293 L80.405,36.305 L70.157,36.305 L70.157,0.707 L70.157,0.707 Z" id="Shape"></path>
            <path d="M10.909,34.417 L20.617,48.979 L20.617,73.25 C20.617,83.39 31.27,86.601 31.27,86.601 L31.27,94.049 L0.257,94.049 L0.257,86.736 C7.485,84.848 10.909,76.597 10.909,73.253 L10.909,34.417 L10.909,34.417 Z" id="Shape"></path>
            <path d="M160.498,0.707 L138.654,0.707 L138.654,11.359 C148.256,13.894 150.245,22.12 150.245,29.834 L150.245,36.307 L160.498,36.305 L160.498,0.707 L160.498,0.707 Z" id="Shape"></path>
            <path d="M131.104,0.707 C131.104,0.707 131.104,56.557 131.104,69.508 C131.104,77.059 132.183,83.531 141.083,86.497 L141.083,94.049 L89.574,94.049 L89.574,86.229 C98.069,83.801 100.092,78.138 100.092,68.16 C100.092,35.475 100.092,0.707 100.092,0.707 L131.104,0.707 L131.104,0.707 Z" id="Shape"></path>
        </g>
    </g>
</svg>
